packages/kaspersky-hexa-ui-icons/src/iconsSVGs/16/CodeError.svg

<svg width="16" height="16" viewBox="0 0 16 16" fill="none" xmlns="http://www.w3.org/2000/svg">
<path d="M8.6501 5.0001C8.6501 4.64111 8.35908 4.3501 8.0001 4.3501C7.64111 4.3501 7.3501 4.64111 7.3501 5.0001V8.33343C7.3501 8.69242 7.64111 8.98343 8.0001 8.98343C8.35908 8.98343 8.6501 8.69242 8.6501 8.33343V5.0001Z" fill="black"/>
<path d="M8.00014 11.0001C8.36833 11.0001 8.66681 10.7016 8.66681 10.3335C8.66681 9.96526 8.36833 9.66678 8.00014 9.66678C7.63195 9.66678 7.33347 9.96526 7.33347 10.3335C7.33347 10.7016 7.63195 11.0001 8.00014 11.0001Z" fill="black"/>
<path d="M5.12638 4.54048C5.38022 4.79432 5.38022 5.20588 5.12638 5.45972L2.91934 7.66676L5.12638 9.87381C5.38022 10.1277 5.38022 10.5392 5.12638 10.7931C4.87254 11.0469 4.46099 11.0469 4.20715 10.7931L1.54048 8.12638C1.28664 7.87254 1.28664 7.46099 1.54048 7.20715L4.20715 4.54048C4.46099 4.28664 4.87254 4.28664 5.12638 4.54048Z" fill="black"/>
<path d="M13.0809 7.66676L10.8738 5.45972C10.62 5.20588 10.62 4.79432 10.8738 4.54048C11.1277 4.28664 11.5392 4.28664 11.793 4.54048L14.4597 7.20715C14.7136 7.46099 14.7136 7.87254 14.4597 8.12638L11.793 10.7931C11.5392 11.0469 11.1277 11.0469 10.8738 10.7931C10.62 10.5392 10.62 10.1277 10.8738 9.87381L13.0809 7.66676Z" fill="black"/>
</svg>

<svg xmlns="http://www.w3.org/2000/svg" width="16" height="16" fill="none" viewBox="0 0 16 16"><path fill="#000" fill-rule="evenodd" d="M8.65 5a.65.65 0 1 0-1.3 0v3.3333a.65.65 0 1 0 1.3 0zm-3.5237-.4596a.65.65 0 0 1 0 .9192l-2.207 2.207 2.207 2.2071a.65.65 0 1 1-.9193.9192L1.5404 8.1263a.65.65 0 0 1 0-.9193L4.207 4.5404a.65.65 0 0 1 .9193 0m7.9544 3.1262-2.207-2.207a.65.65 0 0 1 .9192-.9192l2.6667 2.6666a.65.65 0 0 1 0 .9193l-2.6667 2.6666a.65.65 0 0 1-.9192-.9192zM8 11a.6667.6667 0 1 0 0-1.3334A.6667.6667 0 0 0 8 11"/></svg>
